X:1
T: Jockey's Dance
C:
R:Jig
Q:180
K:C
M:6/8
L:1/16
G2|c4c2 G2c2e2|g4g2 g4e2|g2f2d2 f2e2c2|d2f2e2 d4G2|c4c2 G2c2e2|g4g2 g4e2|d4a2 g4f2|e4c2 c4G2|
c4c2 G2c2e2|g4g2 g4e2|g2f2d2 f2e2c2|d2f2e2 d4G2|c4c2 G2c2e2|g4g2 g4e2|d4a2 g4f2|e4c2 c4Bc|
d4G2 G4e2|d4G2 G4g2|^f2e2d2 d2e2^f2|d2a2b2 g4Bc|d4G2 G4e2|d4G2 G4g2|^f2e2d2 d2e2^f2|g2d2e2 f2A2B2|
c4c2 G2c2e2|g4g2 g4e2|g2f2d2 f2e2c2|d2f2e2 d4G2|c4c2 G2c2e2|g4g2 g4e2|d4a2 g4f2|e4c2 c4||
